images/portal/4859.svg

<?xml version="1.0" standalone="no"?><!DOCTYPE svg PUBLIC "-//W3C//DTD SVG 1.1//EN" "http://www.w3.org/Graphics/SVG/1.1/DTD/svg11.dtd"><svg xmlns:xlink="http://www.w3.org/1999/xlink" version="1.1" class="highcharts-root" style="font-family:Arial;font-size:12px;" xmlns="http://www.w3.org/2000/svg" width="485" height="415"><desc>Created with Highcharts 5.0.7</desc><defs><clipPath id="highcharts-sta9r77-1"><rect x="0" y="0" width="300" height="280" fill="none"></rect></clipPath></defs><rect fill="#fbfbfb" class="highcharts-background" x="0" y="0" width="485" height="415" rx="0" ry="0"></rect><rect fill="none" class="highcharts-plot-background" x="53" y="70" width="300" height="280"></rect><g class="highcharts-grid highcharts-xaxis-grid "><path fill="none" class="highcharts-grid-line" d="M 112.5 70 L 112.5 350" opacity="1"></path><path fill="none" class="highcharts-grid-line" d="M 172.5 70 L 172.5 350" opacity="1"></path><path fill="none" class="highcharts-grid-line" d="M 232.5 70 L 232.5 350" opacity="1"></path><path fill="none" class="highcharts-grid-line" d="M 292.5 70 L 292.5 350" opacity="1"></path><path fill="none" class="highcharts-grid-line" d="M 352.5 70 L 352.5 350" opacity="1"></path><path fill="none" class="highcharts-grid-line" d="M 52.5 70 L 52.5 350" opacity="1"></path></g><g class="highcharts-grid highcharts-yaxis-grid "><path fill="none" stroke="#e6e6e6" stroke-width="1" class="highcharts-grid-line" d="M 53 350.5 L 353 350.5" opacity="1"></path><path fill="none" stroke="#e6e6e6" stroke-width="1" class="highcharts-grid-line" d="M 53 322.5 L 353 322.5" opacity="1"></path><path fill="none" stroke="#e6e6e6" stroke-width="1" class="highcharts-grid-line" d="M 53 294.5 L 353 294.5" opacity="1"></path><path fill="none" stroke="#e6e6e6" stroke-width="1" class="highcharts-grid-line" d="M 53 266.5 L 353 266.5" opacity="1"></path><path fill="none" stroke="#e6e6e6" stroke-width="1" class="highcharts-grid-line" d="M 53 238.5 L 353 238.5" opacity="1"></path><path fill="none" stroke="#e6e6e6" stroke-width="1" class="highcharts-grid-line" d="M 53 210.5 L 353 210.5" opacity="1"></path><path fill="none" stroke="#e6e6e6" stroke-width="1" class="highcharts-grid-line" d="M 53 182.5 L 353 182.5" opacity="1"></path><path fill="none" stroke="#e6e6e6" stroke-width="1" class="highcharts-grid-line" d="M 53 154.5 L 353 154.5" opacity="1"></path><path fill="none" stroke="#e6e6e6" stroke-width="1" class="highcharts-grid-line" d="M 53 126.5 L 353 126.5" opacity="1"></path><path fill="none" stroke="#e6e6e6" stroke-width="1" class="highcharts-grid-line" d="M 53 98.5 L 353 98.5" opacity="1"></path><path fill="none" stroke="#e6e6e6" stroke-width="1" class="highcharts-grid-line" d="M 53 69.5 L 353 69.5" opacity="1"></path></g><rect fill="none" class="highcharts-plot-border" x="53" y="70" width="300" height="280"></rect><g class="highcharts-axis highcharts-xaxis "><path fill="none" class="highcharts-tick" stroke="#FFFFFF" stroke-width="1" d="M 112.5 350 L 112.5 360" opacity="1"></path><path fill="none" class="highcharts-tick" stroke="#FFFFFF" stroke-width="1" d="M 172.5 350 L 172.5 360" opacity="1"></path><path fill="none" class="highcharts-tick" stroke="#FFFFFF" stroke-width="1" d="M 232.5 350 L 232.5 360" opacity="1"></path><path fill="none" class="highcharts-tick" stroke="#FFFFFF" stroke-width="1" d="M 292.5 350 L 292.5 360" opacity="1"></path><path fill="none" class="highcharts-tick" stroke="#FFFFFF" stroke-width="1" d="M 353.5 350 L 353.5 360" opacity="1"></path><path fill="none" class="highcharts-tick" stroke="#FFFFFF" stroke-width="1" d="M 52.5 350 L 52.5 360" opacity="1"></path><path fill="none" class="highcharts-axis-line" stroke="#ccd6eb" stroke-width="1" d="M 53 350.5 L 353 350.5"></path></g><g class="highcharts-axis highcharts-yaxis "><path fill="none" class="highcharts-axis-line" d="M 53 70 L 53 350"></path></g><g class="highcharts-series-group"><g class="highcharts-series highcharts-series-0 highcharts-column-series highcharts-color-undefined highcharts-tracker" transform="translate(53,70) scale(1 1)" clip-path="url(#highcharts-sta9r77-1)"><rect x="15.5" y="207.5" width="29" height="73" fill="#007A2F" class="highcharts-point" stroke="#ffffff" stroke-width="1"></rect><rect x="75.5" y="209.5" width="29" height="71" fill="#007A2F" class="highcharts-point" stroke="#ffffff" stroke-width="1"></rect><rect x="135.5" y="218.5" width="29" height="62" fill="#007A2F" class="highcharts-point" stroke="#ffffff" stroke-width="1"></rect><rect x="195.5" y="188.5" width="29" height="92" fill="#007A2F" class="highcharts-point" stroke="#ffffff" stroke-width="1"></rect><rect x="255.5" y="193.5" width="29" height="87" fill="#007A2F" class="highcharts-point" stroke="#ffffff" stroke-width="1"></rect></g><g class="highcharts-markers highcharts-series-0 highcharts-column-series highcharts-color-undefined " transform="translate(53,70) scale(1 1)" clip-path="none"></g><g class="highcharts-series highcharts-series-1 highcharts-column-series highcharts-color-undefined highcharts-tracker" transform="translate(53,70) scale(1 1)" clip-path="url(#highcharts-sta9r77-1)"><rect x="15.5" y="91.5" width="29" height="116" fill="#73BA7C" class="highcharts-point" stroke="#ffffff" stroke-width="1"></rect><rect x="75.5" y="85.5" width="29" height="124" fill="#73BA7C" class="highcharts-point" stroke="#ffffff" stroke-width="1"></rect><rect x="135.5" y="99.5" width="29" height="119" fill="#73BA7C" class="highcharts-point" stroke="#ffffff" stroke-width="1"></rect><rect x="195.5" y="63.5" width="29" height="125" fill="#73BA7C" class="highcharts-point" stroke="#ffffff" stroke-width="1"></rect><rect x="255.5" y="73.5" width="29" height="120" fill="#73BA7C" class="highcharts-point" stroke="#ffffff" stroke-width="1"></rect></g><g class="highcharts-markers highcharts-series-1 highcharts-column-series highcharts-color-undefined " transform="translate(53,70) scale(1 1)" clip-path="none"></g><g class="highcharts-series highcharts-series-2 highcharts-column-series highcharts-color-undefined highcharts-tracker" transform="translate(53,70) scale(1 1)" clip-path="url(#highcharts-sta9r77-1)"><rect x="15.5" y="45.5" width="29" height="46" fill="#C8C8C8" class="highcharts-point" stroke="#ffffff" stroke-width="1"></rect><rect x="75.5" y="37.5" width="29" height="48" fill="#C8C8C8" class="highcharts-point" stroke="#ffffff" stroke-width="1"></rect><rect x="135.5" y="41.5" width="29" height="58" fill="#C8C8C8" class="highcharts-point" stroke="#ffffff" stroke-width="1"></rect><rect x="195.5" y="31.5" width="29" height="32" fill="#C8C8C8" class="highcharts-point" stroke="#ffffff" stroke-width="1"></rect><rect x="255.5" y="33.5" width="29" height="40" fill="#C8C8C8" class="highcharts-point" stroke="#ffffff" stroke-width="1"></rect></g><g class="highcharts-markers highcharts-series-2 highcharts-column-series highcharts-color-undefined " transform="translate(53,70) scale(1 1)" clip-path="none"></g><g class="highcharts-series highcharts-series-3 highcharts-column-series highcharts-color-undefined highcharts-tracker" transform="translate(53,70) scale(1 1)" clip-path="url(#highcharts-sta9r77-1)"><rect x="15.5" y="12.5" width="29" height="33" fill="#FFBB58" class="highcharts-point" stroke="#ffffff" stroke-width="1"></rect><rect x="75.5" y="12.5" width="29" height="25" fill="#FFBB58" class="highcharts-point" stroke="#ffffff" stroke-width="1"></rect><rect x="135.5" y="11.5" width="29" height="30" fill="#FFBB58" class="highcharts-point" stroke="#ffffff" stroke-width="1"></rect><rect x="195.5" y="6.5" width="29" height="25" fill="#FFBB58" class="highcharts-point" stroke="#ffffff" stroke-width="1"></rect><rect x="255.5" y="9.5" width="29" height="24" fill="#FFBB58" class="highcharts-point" stroke="#ffffff" stroke-width="1"></rect></g><g class="highcharts-markers highcharts-series-3 highcharts-column-series highcharts-color-undefined " transform="translate(53,70) scale(1 1)" clip-path="none"></g><g class="highcharts-series highcharts-series-4 highcharts-column-series highcharts-color-undefined highcharts-tracker" transform="translate(53,70) scale(1 1)" clip-path="url(#highcharts-sta9r77-1)"><rect x="15.5" y="-0.5" width="29" height="13" fill="#FF8028" class="highcharts-point" stroke="#ffffff" stroke-width="1"></rect><rect x="75.5" y="-0.5" width="29" height="13" fill="#FF8028" class="highcharts-point" stroke="#ffffff" stroke-width="1"></rect><rect x="135.5" y="-0.5" width="29" height="12" fill="#FF8028" class="highcharts-point" stroke="#ffffff" stroke-width="1"></rect><rect x="195.5" y="-0.5" width="29" height="7" fill="#FF8028" class="highcharts-point" stroke="#ffffff" stroke-width="1"></rect><rect x="255.5" y="-0.5" width="29" height="10" fill="#FF8028" class="highcharts-point" stroke="#ffffff" stroke-width="1"></rect></g><g class="highcharts-markers highcharts-series-4 highcharts-column-series highcharts-color-undefined " transform="translate(53,70) scale(1 1)" clip-path="none"></g></g><text x="10" text-anchor="start" class="highcharts-title" style="color:#000000;font-size:14px;font-weight:bold;fill:#000000;" y="21"><tspan>I.50.1.0021 Beurteilung der kantonalen Verwaltung</tspan></text><text x="10" text-anchor="start" class="highcharts-subtitle" style="color:#000000;font-size:12px;fill:#000000;" y="40"><tspan>«Denken Sie einmal an den letzten Kontakt, wo Sie mit der kantonalen</tspan><tspan dy="15" x="10">Verwaltung gehabt haben. Wie ist dieser Kontakt verlaufen?»</tspan><title>«Denken Sie einmal an den letzten Kontakt, wo Sie mit der kantonalen Verwaltung gehabt haben. Wie ist dieser Kontakt verlaufen?»</title></text><g class="highcharts-legend" transform="translate(365,137)"><rect fill="none" class="highcharts-legend-box" rx="0" ry="0" x="0" y="0" width="110" height="121" visibility="visible"></rect><g><g><g class="highcharts-legend-item highcharts-column-series highcharts-color-undefined highcharts-series-4" transform="translate(8,3)"><text x="21" style="color:#333333;font-size:12px;font-weight:normal;cursor:pointer;fill:#333333;" text-anchor="start" y="15"><tspan>Sehr negativ</tspan></text><rect x="2" y="4" width="12" height="12" fill="#FF8028" class="highcharts-point"></rect></g><g class="highcharts-legend-item highcharts-column-series highcharts-color-undefined highcharts-series-3" transform="translate(8,22)"><text x="21" y="15" style="color:#333333;font-size:12px;font-weight:normal;cursor:pointer;fill:#333333;" text-anchor="start"><tspan>Eher negativ</tspan></text><rect x="2" y="4" width="12" height="12" fill="#FFBB58" class="highcharts-point"></rect></g><g class="highcharts-legend-item highcharts-column-series highcharts-color-undefined highcharts-series-2" transform="translate(8,41)"><text x="21" y="15" style="color:#333333;font-size:12px;font-weight:normal;cursor:pointer;fill:#333333;" text-anchor="start"><tspan>Weiss nicht /</tspan><tspan x="21" dy="15">keine Angabe</tspan></text><rect x="2" y="4" width="12" height="12" fill="#C8C8C8" class="highcharts-point"></rect></g><g class="highcharts-legend-item highcharts-column-series highcharts-color-undefined highcharts-series-1" transform="translate(8,75)"><text x="21" y="15" style="color:#333333;font-size:12px;font-weight:normal;cursor:pointer;fill:#333333;" text-anchor="start"><tspan>Eher positiv</tspan></text><rect x="2" y="4" width="12" height="12" fill="#73BA7C" class="highcharts-point"></rect></g><g class="highcharts-legend-item highcharts-column-series highcharts-color-undefined highcharts-series-0" transform="translate(8,94)"><text x="21" y="15" style="color:#333333;font-size:12px;font-weight:normal;cursor:pointer;fill:#333333;" text-anchor="start"><tspan>Sehr positiv</tspan></text><rect x="2" y="4" width="12" height="12" fill="#007A2F" class="highcharts-point"></rect></g></g></g></g><g class="highcharts-axis-labels highcharts-xaxis-labels "><text x="83" style="color:#000000;cursor:default;font-size:11px;fill:#000000;" text-anchor="middle" transform="translate(0,0)" y="369" opacity="1"><tspan>2003</tspan><tspan x="83" dy="14">(N=1497)</tspan></text><text x="143" style="color:#000000;cursor:default;font-size:11px;fill:#000000;" text-anchor="middle" transform="translate(0,0)" y="369" opacity="1"><tspan>2005</tspan><tspan x="143" dy="14">(N=1510)</tspan></text><text x="203" style="color:#000000;cursor:default;font-size:11px;fill:#000000;" text-anchor="middle" transform="translate(0,0)" y="369" opacity="1"><tspan>2007</tspan><tspan x="203" dy="14">(N=1509)</tspan></text><text x="263" style="color:#000000;cursor:default;font-size:11px;fill:#000000;" text-anchor="middle" transform="translate(0,0)" y="369" opacity="1"><tspan>2011</tspan><tspan x="263" dy="14">(N=1516)</tspan></text><text x="323" style="color:#000000;cursor:default;font-size:11px;fill:#000000;" text-anchor="middle" transform="translate(0,0)" y="369" opacity="1"><tspan>2015</tspan><tspan x="323" dy="14">(N=1506)</tspan></text></g><g class="highcharts-axis-labels highcharts-yaxis-labels "><text x="38" style="color:#000000;cursor:default;font-size:11px;fill:#000000;" text-anchor="end" transform="translate(0,0)" y="355" opacity="1"><tspan>0%</tspan></text><text x="38" style="color:#000000;cursor:default;font-size:11px;fill:#000000;" text-anchor="end" transform="translate(0,0)" y="327" opacity="1"><tspan>10%</tspan></text><text x="38" style="color:#000000;cursor:default;font-size:11px;fill:#000000;" text-anchor="end" transform="translate(0,0)" y="299" opacity="1"><tspan>20%</tspan></text><text x="38" style="color:#000000;cursor:default;font-size:11px;fill:#000000;" text-anchor="end" transform="translate(0,0)" y="271" opacity="1"><tspan>30%</tspan></text><text x="38" style="color:#000000;cursor:default;font-size:11px;fill:#000000;" text-anchor="end" transform="translate(0,0)" y="243" opacity="1"><tspan>40%</tspan></text><text x="38" style="color:#000000;cursor:default;font-size:11px;fill:#000000;" text-anchor="end" transform="translate(0,0)" y="215" opacity="1"><tspan>50%</tspan></text><text x="38" style="color:#000000;cursor:default;font-size:11px;fill:#000000;" text-anchor="end" transform="translate(0,0)" y="187" opacity="1"><tspan>60%</tspan></text><text x="38" style="color:#000000;cursor:default;font-size:11px;fill:#000000;" text-anchor="end" transform="translate(0,0)" y="159" opacity="1"><tspan>70%</tspan></text><text x="38" style="color:#000000;cursor:default;font-size:11px;fill:#000000;" text-anchor="end" transform="translate(0,0)" y="131" opacity="1"><tspan>80%</tspan></text><text x="38" style="color:#000000;cursor:default;font-size:11px;fill:#000000;" text-anchor="end" transform="translate(0,0)" y="103" opacity="1"><tspan>90%</tspan></text><text x="38" style="color:#000000;cursor:default;font-size:11px;fill:#000000;" text-anchor="end" transform="translate(0,0)" y="75" opacity="1"><tspan>100%</tspan></text></g><text x="10" class="highcharts-credits" text-anchor="start" style="cursor:default;color:#000000;font-size:10px;fill:#000000;" y="400"><tspan>Quelle: Statistisches Amt Basel-Stadt, kantonale Bevölkerungsbefragung: F19a</tspan></text></svg>

<svg class="highcharts-root" xmlns="http://www.w3.org/2000/svg" viewBox="0 0 485 415" font-family="Arial" font-size="12">
    <defs>
        <clipPath id="a">
            <path fill="none" d="M0 0h300v280H0z"/>
        </clipPath>
    </defs>
    <rect fill="#fbfbfb" class="highcharts-background" width="485" height="415" rx="0" ry="0"/>
    <path fill="none" class="highcharts-plot-background" d="M53 70h300v280H53z"/>
    <g class="highcharts-grid highcharts-xaxis-grid">
        <path fill="none" class="highcharts-grid-line" d="M112.5 70v280m60-280v280m60-280v280m60-280v280m60-280v280M52.5 70v280"/>
    </g>
    <g class="highcharts-grid highcharts-yaxis-grid">
        <path fill="none" stroke="#e6e6e6" class="highcharts-grid-line" d="M53 350.5h300m-300-28h300m-300-28h300m-300-28h300m-300-28h300m-300-28h300m-300-28h300m-300-28h300m-300-28h300m-300-28h300m-300-29h300"/>
    </g>
    <path fill="none" class="highcharts-plot-border" d="M53 70h300v280H53z"/>
    <g class="highcharts-axis highcharts-xaxis">
        <path fill="none" class="highcharts-tick" stroke="#FFF" d="M112.5 350v10m60-10v10m60-10v10m60-10v10m61-10v10m-301-10v10"/>
        <path fill="none" class="highcharts-axis-line" stroke="#ccd6eb" d="M53 350.5h300"/>
    </g>
    <g class="highcharts-axis highcharts-yaxis">
        <path fill="none" class="highcharts-axis-line" d="M53 70v280"/>
    </g>
    <g class="highcharts-series-group">
        <g class="highcharts-series highcharts-series-0 highcharts-column-series highcharts-color-undefined highcharts-tracker" transform="translate(53 70)" clip-path="url(#a)">
            <path fill="#007A2F" class="highcharts-point" stroke="#fff" d="M15.5 207.5h29v73h-29zm60 2h29v71h-29zm60 9h29v62h-29zm60-30h29v92h-29zm60 5h29v87h-29z"/>
        </g>
        <g class="highcharts-series highcharts-series-1 highcharts-column-series highcharts-color-undefined highcharts-tracker" transform="translate(53 70)" clip-path="url(#a)">
            <path fill="#73BA7C" class="highcharts-point" stroke="#fff" d="M15.5 91.5h29v116h-29zm60-6h29v124h-29zm60 14h29v119h-29zm60-36h29v125h-29zm60 10h29v120h-29z"/>
        </g>
        <g class="highcharts-series highcharts-series-2 highcharts-column-series highcharts-color-undefined highcharts-tracker" transform="translate(53 70)" clip-path="url(#a)">
            <path fill="#C8C8C8" class="highcharts-point" stroke="#fff" d="M15.5 45.5h29v46h-29zm60-8h29v48h-29zm60 4h29v58h-29zm60-10h29v32h-29zm60 2h29v40h-29z"/>
        </g>
        <g class="highcharts-series highcharts-series-3 highcharts-column-series highcharts-color-undefined highcharts-tracker" transform="translate(53 70)" clip-path="url(#a)">
            <path fill="#FFBB58" class="highcharts-point" stroke="#fff" d="M15.5 12.5h29v33h-29zm60 0h29v25h-29zm60-1h29v30h-29zm60-5h29v25h-29zm60 3h29v24h-29z"/>
        </g>
        <g class="highcharts-series highcharts-series-4 highcharts-column-series highcharts-color-undefined highcharts-tracker" transform="translate(53 70)" clip-path="url(#a)">
            <path fill="#FF8028" class="highcharts-point" stroke="#fff" d="M15.5-.5h29v13h-29zm60 0h29v13h-29zm60 0h29v12h-29zm60 0h29v7h-29zm60 0h29v10h-29z"/>
        </g>
    </g>
    <text x="10" class="highcharts-title" y="21" color="#000" font-size="14" font-weight="700">
        <tspan>I.50.1.0021 Beurteilung der kantonalen Verwaltung</tspan>
    </text>
    <text x="10" class="highcharts-subtitle" y="40" color="#000">
        <tspan>«Denken Sie einmal an den letzten Kontakt, wo Sie mit der kantonalen</tspan><tspan dy="15" x="10">Verwaltung gehabt haben. Wie ist dieser Kontakt verlaufen?»</tspan><title>«Denken Sie einmal an den letzten Kontakt, wo Sie mit der kantonalen Verwaltung gehabt haben. Wie ist dieser Kontakt verlaufen?»</title>
    </text>
    <g class="highcharts-legend" transform="translate(365 137)">
        <rect fill="none" class="highcharts-legend-box" rx="0" ry="0" width="110" height="121"/>
        <g class="highcharts-legend-item highcharts-column-series highcharts-color-undefined highcharts-series-4">
            <text x="21" y="15" color="#333" font-weight="400" cursor="pointer" fill="#333" transform="translate(8 3)">
                <tspan>Sehr negativ</tspan>
            </text>
            <path fill="#FF8028" class="highcharts-point" d="M10 7h12v12H10z"/>
        </g>
        <g class="highcharts-legend-item highcharts-column-series highcharts-color-undefined highcharts-series-3">
            <text x="21" y="15" color="#333" font-weight="400" cursor="pointer" fill="#333" transform="translate(8 22)">
                <tspan>Eher negativ</tspan>
            </text>
            <path fill="#FFBB58" class="highcharts-point" d="M10 26h12v12H10z"/>
        </g>
        <g class="highcharts-legend-item highcharts-column-series highcharts-color-undefined highcharts-series-2">
            <text x="21" y="15" color="#333" font-weight="400" cursor="pointer" fill="#333" transform="translate(8 41)">
                <tspan>Weiss nicht /</tspan><tspan x="21" dy="15">keine Angabe</tspan>
            </text>
            <path fill="#C8C8C8" class="highcharts-point" d="M10 45h12v12H10z"/>
        </g>
        <g class="highcharts-legend-item highcharts-column-series highcharts-color-undefined highcharts-series-1">
            <text x="21" y="15" color="#333" font-weight="400" cursor="pointer" fill="#333" transform="translate(8 75)">
                <tspan>Eher positiv</tspan>
            </text>
            <path fill="#73BA7C" class="highcharts-point" d="M10 79h12v12H10z"/>
        </g>
        <g class="highcharts-legend-item highcharts-column-series highcharts-color-undefined highcharts-series-0">
            <text x="21" y="15" color="#333" font-weight="400" cursor="pointer" fill="#333" transform="translate(8 94)">
                <tspan>Sehr positiv</tspan>
            </text>
            <path fill="#007A2F" class="highcharts-point" d="M10 98h12v12H10z"/>
        </g>
    </g>
    <g class="highcharts-axis-labels highcharts-xaxis-labels" text-anchor="middle" color="#000" cursor="default" font-size="11">
        <text x="83" y="369">
            <tspan>2003</tspan><tspan x="83" dy="14">(N=1497)</tspan>
        </text>
        <text x="143" y="369">
            <tspan>2005</tspan><tspan x="143" dy="14">(N=1510)</tspan>
        </text>
        <text x="203" y="369">
            <tspan>2007</tspan><tspan x="203" dy="14">(N=1509)</tspan>
        </text>
        <text x="263" y="369">
            <tspan>2011</tspan><tspan x="263" dy="14">(N=1516)</tspan>
        </text>
        <text x="323" y="369">
            <tspan>2015</tspan><tspan x="323" dy="14">(N=1506)</tspan>
        </text>
    </g>
    <g class="highcharts-axis-labels highcharts-yaxis-labels" text-anchor="end" color="#000" cursor="default" font-size="11">
        <text x="38" y="355">
            <tspan>0%</tspan>
        </text>
        <text x="38" y="327">
            <tspan>10%</tspan>
        </text>
        <text x="38" y="299">
            <tspan>20%</tspan>
        </text>
        <text x="38" y="271">
            <tspan>30%</tspan>
        </text>
        <text x="38" y="243">
            <tspan>40%</tspan>
        </text>
        <text x="38" y="215">
            <tspan>50%</tspan>
        </text>
        <text x="38" y="187">
            <tspan>60%</tspan>
        </text>
        <text x="38" y="159">
            <tspan>70%</tspan>
        </text>
        <text x="38" y="131">
            <tspan>80%</tspan>
        </text>
        <text x="38" y="103">
            <tspan>90%</tspan>
        </text>
        <text x="38" y="75">
            <tspan>100%</tspan>
        </text>
    </g>
    <text x="10" class="highcharts-credits" y="400" cursor="default" color="#000" font-size="10">
        <tspan>Quelle: Statistisches Amt Basel-Stadt, kantonale Bevölkerungsbefragung: F19a</tspan>
    </text>
</svg>
